X:817
T:Prince George's Birthday
C:John Young, c.1710
M:3/2
R:Triple-time
L:1/4
%%MIDI gchord fcHcfc
%%MIDI beat 100 95 80
S:Colin Hume's website,  colinhume.com  - chords can also be printed below the stave.
Q:1/2=100
K:Gm
P:A
"Gm"BG B/c/d "D7"A/B/c | "Gm"B2G2d2 | "Gm"gd "Cm"(e/d/)c d/c/B | "D7"B3(A/G/) "Gm"G2 |
"Bb"dB (d/e/)f "F"(c/d/)e | "Bb"d2B2f2 | "Eb"(g/a/)g "Bb/D"(f/g/)f "Cm"ed | "F7"c4 "Bb"B2 |
P:B
"Bb"dB2d "F"c2 | "D7"cA2c "Gm"B2 | "Eb"BG2B "Cm"AG | "D7"^F3GA2 |
"Gm"(B/c/)d "F"(c/d/)e "Bb"d2 | "Dm"(d/=e/)f "A7"(e/f/)g "D7"^f2 | "Gm"gd "Cm"eg ab | "D7"g3^f "Gm"g2 |]

